i/admin/skin/entrine/list/visible_top-0.svg

<svg height="24" viewBox="0 0 24 24" width="24" xmlns="http://www.w3.org/2000/svg"><g><path d="m19.604 5.562-3.346 3.137c-1.27-.428-2.686-.699-4.243-.699-7.569 0-12.015 6.551-12.015 6.551s1.928 2.951 5.146 5.138l-2.911 2.909 1.414 1.414 17.37-17.035zm-6.016 5.779c-3.288-1.453-6.681 1.908-5.265 5.206l-1.726 1.707c-1.814-1.16-3.225-2.65-4.06-3.66 1.493-1.648 4.817-4.594 9.478-4.594.927 0 1.796.119 2.61.315zm-2.883 7.431 5.09-4.993c1.017 3.111-2.003 6.067-5.09 4.993zm13.295-4.221s-4.252 7.449-11.985 7.449c-1.379 0-2.662-.291-3.851-.737l1.614-1.583c.715.193 1.458.32 2.237.32 4.791 0 8.104-3.527 9.504-5.364-.729-.822-1.956-1.99-3.587-2.952l1.489-1.46c2.982 1.9 4.579 4.327 4.579 4.327z"/><path d="m0 0h24v2h-24z"/></g></svg>

<svg width="24px" height="24px" viewBox="0 0 24 24" version="1.1" xmlns="http://www.w3.org/2000/svg" xmlns:xlink="http://www.w3.org/1999/xlink">
    <g id="Page-1" stroke="none" stroke-width="1" fill="none" fill-rule="evenodd">
        <g id="visible-0" fill="#000000" fill-rule="nonzero">
            <path d="M19.604,5.562 L16.258,8.699 C14.988,8.271 13.572,8 12.015,8 C4.446,8 -1.77635684e-15,14.551 -1.77635684e-15,14.551 C-1.77635684e-15,14.551 1.928,17.502 5.146,19.689 L2.235,22.598 L3.649,24.012 L21.019,6.977 L19.604,5.562 Z M13.588,11.341 C10.3,9.888 6.907,13.249 8.323,16.547 L6.597,18.254 C4.783,17.094 3.372,15.604 2.537,14.594 C4.03,12.946 7.354,10 12.015,10 C12.942,10 13.811,10.119 14.625,10.315 L13.588,11.341 Z M10.705,18.772 L15.795,13.779 C16.812,16.89 13.792,19.846 10.705,18.772 Z M24,14.551 C24,14.551 19.748,22 12.015,22 C10.636,22 9.353,21.709 8.164,21.263 L9.778,19.68 C10.493,19.873 11.236,20 12.015,20 C16.806,20 20.119,16.473 21.519,14.636 C20.79,13.814 19.563,12.646 17.932,11.684 L19.421,10.224 C22.403,12.124 24,14.551 24,14.551 Z" id="Shape"></path>
            <rect id="Rectangle" x="0" y="0" width="24" height="2"></rect>
        </g>
    </g>
</svg>
